src/assets/heavy-category.svg

<svg width="65" height="65" viewBox="0 0 65 65" fill="none" xmlns="http://www.w3.org/2000/svg">
<path d="M62.6786 13.919H2.32143C0.928571 13.919 0 14.847 0 16.2389V32.4778C0 33.8697 0.928571 34.7976 2.32143 34.7976H15.5536L9.28571 62.1717C9.05357 63.3317 9.75 64.7236 10.9107 64.9556C12.0714 65.1875 13.4643 64.4916 13.6964 63.3317L17.1786 48.7167H47.8214L51.0714 63.0997C51.3036 64.2596 52.2321 64.9556 53.3929 64.9556H53.8571C55.0179 64.7236 55.9464 63.3317 55.7143 62.1717L49.4464 34.7976H62.6786C64.0714 34.7976 65 33.8697 65 32.4778V16.2389C65 14.847 64.0714 13.919 62.6786 13.919ZM56.4107 18.5587L49.6786 30.1579H43.4107L50.1429 18.5587H56.4107ZM31.8036 30.1579L38.5357 18.5587H44.8036L38.0714 30.1579H31.8036ZM20.1964 30.1579L26.9286 18.5587H33.1964L26.4643 30.1579H20.1964ZM8.58928 30.1579L15.3214 18.5587H21.5893L14.8571 30.1579H8.58928ZM9.98214 18.5587L4.64286 27.8381V18.5587H9.98214ZM46.6607 44.077H18.3393L20.4286 34.7976H44.5714L46.6607 44.077ZM55.0179 30.1579L60.3571 20.8786V30.1579H55.0179ZM20.8929 6.95952C20.8929 3.01579 17.875 0 13.9286 0C9.98214 0 6.96429 3.01579 6.96429 6.95952C6.96429 10.9033 9.98214 13.919 13.9286 13.919C17.875 13.919 20.8929 10.9033 20.8929 6.95952ZM13.9286 9.27936C12.5357 9.27936 11.6071 8.35143 11.6071 6.95952C11.6071 5.56762 12.5357 4.63968 13.9286 4.63968C15.3214 4.63968 16.25 5.56762 16.25 6.95952C16.25 8.35143 15.3214 9.27936 13.9286 9.27936ZM58.0357 6.95952C58.0357 3.01579 55.0179 0 51.0714 0C47.125 0 44.1071 3.01579 44.1071 6.95952C44.1071 10.9033 47.125 13.919 51.0714 13.919C55.0179 13.919 58.0357 10.9033 58.0357 6.95952ZM51.0714 9.27936C49.6786 9.27936 48.75 8.35143 48.75 6.95952C48.75 5.56762 49.6786 4.63968 51.0714 4.63968C52.4643 4.63968 53.3929 5.56762 53.3929 6.95952C53.3929 8.35143 52.4643 9.27936 51.0714 9.27936Z" fill="#024EC9"/>
</svg>

<svg width="65" height="65" fill="none" xmlns="http://www.w3.org/2000/svg"><path d="M62.679 13.919H2.32c-1.39 0-2.32.928-2.32 2.32v16.239c0 1.392.929 2.32 2.321 2.32h13.233L9.286 62.172c-.232 1.16.464 2.552 1.625 2.784 1.16.231 2.553-.464 2.785-1.624l3.483-14.615H47.82L51.07 63.1c.233 1.16 1.161 1.856 2.322 1.856h.464c1.16-.232 2.09-1.624 1.857-2.784l-6.268-27.374H62.68c1.392 0 2.321-.928 2.321-2.32v-16.24c0-1.391-.929-2.319-2.321-2.319zm-6.268 4.64l-6.732 11.599H43.41l6.732-11.6h6.268zM31.804 30.158l6.732-11.6h6.268l-6.733 11.6h-6.267zm-11.608 0l6.733-11.6h6.267l-6.732 11.6h-6.268zm-11.607 0l6.732-11.6h6.268l-6.732 11.6H8.59zm1.393-11.6l-5.34 9.28v-9.28h5.34zm36.679 25.519H18.339l2.09-9.28H44.57l2.09 9.28zm8.357-13.92l5.34-9.278v9.279h-5.34zM20.893 6.96c0-3.944-3.018-6.96-6.964-6.96-3.947 0-6.965 3.016-6.965 6.96 0 3.943 3.018 6.959 6.965 6.959 3.946 0 6.964-3.016 6.964-6.96zm-6.964 2.32c-1.393 0-2.322-.929-2.322-2.32 0-1.392.929-2.32 2.322-2.32 1.392 0 2.321.928 2.321 2.32 0 1.391-.929 2.32-2.321 2.32zm44.107-2.32c0-3.944-3.018-6.96-6.965-6.96-3.946 0-6.964 3.016-6.964 6.96 0 3.943 3.018 6.959 6.964 6.959 3.947 0 6.965-3.016 6.965-6.96zM51.07 9.28c-1.392 0-2.321-.929-2.321-2.32 0-1.392.929-2.32 2.321-2.32 1.393 0 2.322.928 2.322 2.32 0 1.391-.929 2.32-2.322 2.32z" fill="#024EC9"/></svg>
